X:1
T:Title
%%score { ( 1 3 4 ) | ( 2 5 ) }
L:1/8
M:4/4
K:G
V:1 treble nm="Grand Piano"
V:3 treble 
V:4 treble 
V:2 bass 
V:5 bass 
V:1
 z4 z2[Q:1/4=106] D2 | [DGB]2 [DGB]2 [^DAB]3 [DAB] | [EGB]2 [EGB]2 [=FGB]3 [FGB] | %3
 [CEB]2 [CEA]2 [CE]2 [CEB]2 | [CEA]6[K:bass][K:treble] z2 | z4 [DAc]4[K:bass] | %6
 [B,D]2 [B,DG]2 [DGB]3 B | [EGB]2 [EGA]2 [^CGA]2 [CGB]2 | A6 z2 | [DGB]2 [DGB]2 [^DAB]3 [DAB] | %10
 [EGB]2 [EGB]2 [=FGB]3 [FGB] | [CEB]2 [CEA]2 [EAc]2 [E^Gd]2 | [EAce]6 z2 | [EG^c]4 z4 | %14
 [DFAd]2 A2 F2 [DFA]2 | [DGB]2 [DAd]2 [EGd]2 [EG^c]2 |[M:7/8] d-d-d- d- d3 |[M:1/4] d>B | %18
[M:4/4] z2 [B,D]2 z2 [DF]2 | z2 G2 G2 A>B | [DAc]2 d>c [DGB]2 [CGc]2 | %21
 [DFA]6[K:bass][K:treble] z2 | [DGd]3 e [DGd]2 [DFc]2 | [DGB]2 [DFc]2 [DGd]2 [DGB]2 | %24
 [DFA]4 [GA^ce]4 | [FAd]6 d>B | z2 [B,D]2 z2 [DF]2 | z2 G2 G2 A>B | [DAc]2 d>c [DGB]2 [CGc]2 | %29
 [DFA]6[K:bass][K:treble] z2 | [DGd]3 e [DGd]2 [DFc]2 | [DGB]2 [DFc]2 [DGd]2 [DG]2 | z4 [DFAcd]4 | %33
[M:7/8] [B,DG]-[B,DG]-[B,DG]- [B,DG]- [B,DG]3 |] %34
V:2
 z8 | [G,,G,]4 [F,,F,]4 | [E,,E,]4 [D,,D,]4 | [C,,C,]4 [C,,C,]4 | [C,,C,]2 B,,,2 G,,,2 [C,,C,]2 | %5
 [D,,D,]2 [E,,E,]2 [F,,F,]2 z C | [G,,G,]2 [F,,F,]2 [E,,E,]2 z [DG] | [^C,,C,]4 [A,,,A,,]4 | %8
 [D,,D,]2 [E,,E,]2 [F,,F,]2 [D,,D,]2 | [G,,G,]4 [F,,F,]4 | [E,,E,]4 [D,,D,]4 | %11
 [C,,C,]4 [C,C]2 [B,,B,]2 | [A,,A,]2 C,>E, A,2[K:treble] d2 | [A,,A,]2 z E B,,2 ^C,2 | %14
 D,2 A,2 F,2 [D,,D,]2 | [G,,G,]2 [F,,F,]2 [E,,E,]2 [A,,A,]2 |[M:7/8] [A,D]2 [B,E]2 [CF]3 | %17
[M:1/4] D>B, |[M:4/4] [G,,,G,,]4 [D,,D,]4 | z2 D2 D2 z2 | [F,,F,]2 [D,,D,]2 [G,,G,]2 [E,,E,]2 | %21
 [D,,D,]2 E,,2 D,,2 [C,,C,]2 | [B,,,B,,]2 z [EG] [B,,,B,,]2 [A,,,A,,]2 | %23
 [G,,,G,,]2 [A,,,A,,]2 [B,,,B,,]2 [G,,,G,,]2 | A,,,2 A,,2 A,,,2 A,,2 | D,,2 F,,>A,, D,2 D>B, | %26
 [G,,,G,,]4 [D,,D,]4 | z2 D2 D2 z2 | [F,,F,]2 [D,,D,]2 [G,,G,]2 [E,,E,]2 | %29
 [D,,D,]2 E,,2 D,,2 [C,,C,]2 | [B,,,B,,]2 z [EG] [B,,,B,,]2 [A,,,A,,]2 | %31
 [G,,,G,,]2 [A,,,A,,]2 [B,,,B,,]2 [B,,,B,,]2 | [C,,C,]2 [A,,,A,,]2 [D,,D,]2 D,,2 | %33
[M:7/8] G,,2 D,,2 G,,,3 |] %34
V:3
 x8 | x8 | x8 | x8 | z4[K:bass] A,,2[K:treble] [CEG]2 | [CDF]2 [DGc]2 z2[K:bass] z E | x8 | x8 | %8
 [CF]2 [CE]2 [CD]2 D2 | x8 | x8 | x8 | x8 | z2 z [G^c] [B,EGB]2 [^CEGA]2 | x8 | x8 | %16
[M:7/8] F2 G2 A3 |[M:1/4] x2 |[M:4/4] [G,G]4 [A,A]4 | [B,B]6 z2 | z2 [DF]2 z4 | %21
 z2[K:bass] E,2 D,2[K:treble] D2 | x8 | x8 | x8 | x8 | [G,G]4 [A,A]4 | [B,B]6 z2 | z2 [DF]2 z4 | %29
 z2[K:bass] E,2 D,2[K:treble] D2 | x8 | x8 | [EGe]4 z2 D,2 |[M:7/8] G,2 D,2 G,,3 |] %34
V:4
 x8 | x8 | x8 | x8 | x4[K:bass] x2[K:treble] x2 | z4 z2[K:bass] D,2 | x8 | x8 | x8 | x8 | x8 | x8 | %12
 x8 | z2 A,2 z4 | x8 | x8 |[M:7/8] x7 |[M:1/4] x2 |[M:4/4] x8 | x8 | x8 | %21
 x2[K:bass] x4[K:treble] x2 | x8 | x8 | x8 | x8 | x8 | x8 | x8 | x2[K:bass] x4[K:treble] x2 | x8 | %31
 x8 | x8 |[M:7/8] x7 |] %34
V:5
 x8 | x8 | x8 | x8 | x8 | z4 z2 D,,2 | z4 z2 [D,,D,]2 | x8 | x8 | x8 | x8 | x8 | x6[K:treble] x2 | %13
 z2 A,,2 z4 | x8 | x8 |[M:7/8] D,-D,-D,- D,- D,3 |[M:1/4] x2 |[M:4/4] x8 | [G,,G,]6 z2 | x8 | x8 | %22
 z2 [C,,C,]2 z4 | x8 | x8 | x8 | x8 | [G,,G,]6 z2 | x8 | x8 | z2 [C,,C,]2 z4 | x8 | x8 | %33
[M:7/8] x7 |] %34

